img/decore/news__decore_2.svg

<svg width="284" height="340" viewBox="0 0 284 340" fill="none" xmlns="http://www.w3.org/2000/svg">
<g id="Scribble">
<g id="Group">
<path id="Vector" d="M132.023 228.897C133.555 223.299 134.734 218.526 136.177 213.841C138.593 205.887 141.333 198.138 146.961 191.685C152.676 185.145 159.806 182.67 167.968 185.056C172.976 186.53 177.573 189.358 182.257 191.744C184.084 192.687 185.675 194.16 188.179 195.958C187.236 191.479 186.441 187.973 185.793 184.438C184.172 175.805 182.198 167.231 181.167 158.54C179.694 146.637 185.704 139.507 197.725 138.446C202.439 138.034 207.3 138.77 212.103 139.036C213.547 139.124 214.961 139.419 216.67 139.654C212.25 132.583 207.949 125.925 203.942 119.148C194.602 103.327 205.12 93.6923 217.789 92.0424C221.177 91.6004 224.742 91.9834 228.19 92.3075C230.488 92.6022 232.373 94.0753 232.02 96.6091C231.725 98.9072 229.663 99.5554 227.482 99.6143C225.332 99.7027 223.151 99.6438 221.06 99.9679C218.614 100.351 216.139 100.763 213.812 101.618C207.271 104.034 205.326 108.1 208.096 114.522C210.041 119.06 212.663 123.332 215.196 127.574C217.554 131.522 220.117 135.382 222.68 139.242C223.976 141.245 225.214 143.308 223.976 145.665C222.562 148.375 219.881 148.169 217.406 147.992C214.254 147.786 211.16 147.108 208.008 147.079C204.03 146.99 200.023 146.99 196.134 147.521C190.86 148.257 188.798 150.555 188.827 155.888C188.857 160.985 189.181 166.2 190.035 171.238C191.921 182.022 194.16 192.687 196.429 203.382C196.959 205.916 196.93 208.067 194.72 209.569C192.628 211.013 190.625 210.129 188.768 208.744C185.469 206.27 182.228 203.618 178.81 201.32C175.805 199.316 172.682 197.313 169.382 195.899C160.572 192.098 154.68 193.984 149.17 201.791C145.016 207.654 142.129 214.136 140.066 220.971C138.564 225.892 137.385 230.9 136.089 235.85C135.411 238.472 134.704 241.183 131.434 241.566C128.34 241.89 126.69 239.651 125.188 237.382C124.569 236.41 124.098 235.349 123.597 234.318C122.624 232.226 121.505 230.164 120.739 227.984C114.935 211.809 102.266 206.387 86.4441 206.181C83.5273 206.152 80.581 207.036 77.6642 207.595C76.2206 207.861 74.8063 208.568 73.3627 208.656C72.3315 208.744 70.7699 208.42 70.3575 207.713C69.8861 206.947 70.2396 205.415 70.5637 204.502C71.3003 202.528 73.3037 200.878 75.1304 200.112C78.7544 198.609 82.614 197.283 86.4736 196.9C95.0178 196.017 103.297 197.755 111.281 200.966C118.087 203.706 122.683 208.833 125.924 215.197C127.987 219.381 129.695 223.682 132.023 228.897Z" fill="black"/>
</g>
</g>
</svg>

<svg width="284" height="340" fill="none" xmlns="http://www.w3.org/2000/svg"><path d="M132.023 228.897c1.532-5.598 2.711-10.371 4.154-15.056 2.416-7.954 5.156-15.703 10.784-22.156 5.715-6.54 12.845-9.015 21.007-6.629 5.008 1.474 9.605 4.302 14.289 6.688 1.827.943 3.418 2.416 5.922 4.214-.943-4.479-1.738-7.985-2.386-11.52-1.621-8.633-3.595-17.207-4.626-25.898-1.473-11.903 4.537-19.033 16.558-20.094 4.714-.412 9.575.324 14.378.59 1.444.088 2.858.383 4.567.618-4.42-7.071-8.721-13.729-12.728-20.506-9.34-15.821 1.178-25.456 13.847-27.106 3.388-.442 6.953-.059 10.401.266 2.298.294 4.183 1.767 3.83 4.301-.295 2.298-2.357 2.946-4.538 3.005-2.15.089-4.331.03-6.422.354-2.446.383-4.921.795-7.248 1.65-6.541 2.416-8.486 6.482-5.716 12.904 1.945 4.538 4.567 8.81 7.1 13.052 2.358 3.948 4.921 7.808 7.484 11.668 1.296 2.003 2.534 4.066 1.296 6.423-1.414 2.71-4.095 2.504-6.57 2.327-3.152-.206-6.246-.884-9.398-.913-3.978-.089-7.985-.089-11.874.442-5.274.736-7.336 3.034-7.307 8.367.03 5.097.354 10.312 1.208 15.35 1.886 10.784 4.125 21.449 6.394 32.144.53 2.534.501 4.685-1.709 6.187-2.092 1.444-4.095.56-5.952-.825-3.299-2.474-6.54-5.126-9.958-7.424-3.005-2.004-6.128-4.007-9.428-5.421-8.81-3.801-14.702-1.915-20.212 5.892-4.154 5.863-7.041 12.345-9.104 19.18-1.502 4.921-2.681 9.929-3.977 14.879-.678 2.622-1.385 5.333-4.655 5.716-3.094.324-4.744-1.915-6.246-4.184-.619-.972-1.09-2.033-1.591-3.064-.973-2.092-2.092-4.154-2.858-6.334-5.804-16.175-18.473-21.597-34.295-21.803-2.917-.029-5.863.855-8.78 1.414-1.443.266-2.858.973-4.301 1.061-1.031.088-2.593-.236-3.005-.943-.472-.766-.118-2.298.206-3.211.736-1.974 2.74-3.624 4.566-4.39 3.624-1.503 7.484-2.829 11.344-3.212 8.544-.883 16.823.855 24.807 4.066 6.806 2.74 11.402 7.867 14.643 14.231 2.063 4.184 3.771 8.485 6.099 13.7z" fill="#000"/></svg>
